X: 92
T: Pan chce królować: odział się zacnością,
C: Mikołaj Gomółka
%%abc-version 2.0
%%abcx-abcm2ps-target-version 5.9.1 (29 Sep 2008)
%%abc-creator hum2abc beta
%%abcx-conversion-date 2021/10/04 07:59:08
%%abc-edited-by Anna Matuszewska
%%abcx-initial-encoding-date 2020-02-16
%%humdrum-veritas 2346257369
%%humdrum-veritas-data 2868443416
%%linebreak <none>
%%barnumbers 0
L: 1/4
M: C|
N: Derived from pl-wn--sd-xvi-qu-273--093_gomolka-mikolaj--pan-chce-krolowac-odzial-sie-zacnoscia.krn
%%staves [1 2 3 4]
V: 1 clef=treble
V: 2
V: 3
V: 4
K: F
[V:1] f4e2d4 | 
[V:2] c4c2A4 | 
[V:3] c4B2A4 | 
[V:4] F,4C2D4 [|] 
[V:1] d2c2c2 | 
[V:2] B2G2A2 | 
[V:3] GFG2A2 | 
[V:4] CB,C2F,6 [|] 
[V:1] d2>c2B2c2 | 
[V:2] B2>A2G2F4 | 
[V:3] A2>G2F2E4 | 
[V:4] B,2A,2 [|] 
[V:1] B4A2c2 | 
[V:2] E2F2A2 | 
[V:3] D2E2A3 | 
[V:4] G,2G,2F,2F,2 [|] 
[V:1] d2>c2_B2c3 | 
[V:2] B2>A2G2G2 | 
[V:3] GF2G3F | 
[V:4] D,2G,2>F,2E,2 [|] 
[V:1] BA2d4 | 
[V:2] A2>G2F2B2 | 
[V:3] E2E2F3G | 
[V:4] F,2>E,2D,2G,2 [|] 
[V:1] c2A2_B2B2 | 
[V:2] A2A2G3F | 
[V:3] A2>G2FEF2 | 
[V:4] A,2F,2G,4 [|] 
[V:1] c2c2c6 | 
[V:2] E2F2F6 | 
[V:3] E2E2C6 | 
[V:4] C,2F,2F,6 [|] 
[V:1] c2B4 | 
[V:2] C2D4 | 
[V:3] C2D2A,2 | 
[V:4] F,2[K:clef=bass]_B,,4 [|] 
[V:1] A2F2f3e | 
[V:2] CB,A,G,F,2F2 | 
[V:3] AGFEDCDE | 
[V:4] F,,2F,E,2<D,2C, [|] 
[V:1] d2c2B4 | 
[V:2] F2>E2DEFG | 
[V:3] F2C2D3C/B,/ | 
[V:4] B,,2F,,2B,,C,D,E, [|] 
[V:1] A2F2G2F4 | 
[V:2] F2>E2DCD2 | 
[V:3] C2C2D3C | 
[V:4] F,E,D,C,B,,2B,,2 [|] 
[V:1] E2F4 | 
[V:2] C2>B,2A,4 | 
[V:3] B,A,B,2A,4 | 
[V:4] C,4F,,4 | 


